src/pos-icons/handball.svg

<svg height="24" viewBox="0 0 24 24" width="24" xmlns="http://www.w3.org/2000/svg"><path d="m15.83 10.43a6.93 6.93 0 0 1 2.56 4.43 6.64 6.64 0 0 1 -.89 4.64l-1.72-1a5 5 0 0 0 .66-2.5 5.22 5.22 0 0 0 -.98-2.94l-6.28 10.87-1.74-.98 3-5.2-1.73-.99-1.5 2.58-1.71-.98 5.13-8.91a7 7 0 0 1 -1.83-3.99 6.91 6.91 0 0 1 .89-4.36l1.74 1.03a4.84 4.84 0 0 0 -.52 3.77 4.74 4.74 0 0 0 2.3 3.03m2.79-3.93a2 2 0 1 0 2 2 2 2 0 0 0 -2-2m-2.5-4a1.5 1.5 0 1 0 1.5 1.5 1.5 1.5 0 0 0 -1.5-1.5z"/></svg>

<?xml version="1.0" encoding="UTF-8"?><!DOCTYPE svg PUBLIC "-//W3C//DTD SVG 1.1//EN" "http://www.w3.org/Graphics/SVG/1.1/DTD/svg11.dtd"><svg xmlns="http://www.w3.org/2000/svg" xmlns:xlink="http://www.w3.org/1999/xlink" version="1.1" id="mdi-handball" width="24" height="24" viewBox="0 0 24 24"><path d="M15.83 10.43A6.93 6.93 0 0 1 18.39 14.86A6.64 6.64 0 0 1 17.5 19.5L15.78 18.5A5 5 0 0 0 16.44 16A5.22 5.22 0 0 0 15.46 13.06L9.18 23.93L7.44 22.95L10.44 17.75L8.71 16.76L7.21 19.34L5.5 18.36L10.63 9.45A7 7 0 0 1 8.8 5.46A6.91 6.91 0 0 1 9.69 1.1L11.43 2.13A4.84 4.84 0 0 0 10.91 5.9A4.74 4.74 0 0 0 13.21 8.93M16 5A2 2 0 1 0 18 7A2 2 0 0 0 16 5M13.5 1A1.5 1.5 0 1 0 15 2.5A1.5 1.5 0 0 0 13.5 1Z" /></svg>
